X: 278
T: Nights at Tom O'Reilly's
C: BB 3/09
N: 142271 
L: 1/8
M: 6/8
R: jig 
Q: 1/4=170
K: Em
E/F/ | "Em"GEE BEE | "G"GAB "Am"cBA | "Em"GEE BEE| "D"dBA FED |
"Em"GEG BAG | "Bm"Bdf "Em"ede | "C"gfe "D"dBA | "Em"GED E2 :|
B | "Em"edB efg | "D"fed fga | "Em"bgg "D"aff | "C"gfe "D"dBA |
"Em"Bed efg | "D"fed fga | "Em"bge "D"dfa | "Em"gee e2 :|
%%%%%
